X: 1
T:Passade 1 - bourree
C:Gilles Chabenat
N:abc transcription Simon Wascher
N:if you find an error in this transcription please inform simon.wascher@chello.at
M:3/8
L:1/16
K:Dmixo
G2EFGE|A3GAB|cBAGAB|A2GFEF|
G2EFGE|A3GAB|cBAGAB|1D3:|2D2EFGA||
|:B2GABd|A2F2d2|G2EFGB|A2GFED|
B2GABd|A2F2d2|G2EFGB|1A4GA:|2A6||
